X: 19654
T: Jearoid
R: reel
M: 4/4
K: Adorian
A/A/A|AGED EGAB|AGEG A2 G/G/G|GEDB, DEGA|GEDE G2 A/A/A|
AGED EGAB|AGEG A3 B|cBAc BAGE|DEGA G2 B/c/d||
e4 d3B|cBAG EG Bd|e4 d3 B|dega gA B/c/d|
e4 d3 B|cBAG EGAB|cBAc BAGE|DEGA G4||

